X:2617
T:Holly Polka. GHW.005
O:england
M:2/4
L:1/8
Q:200
S:George H.Watson,MS,Swanton Abbott,Norfolk,1850-1880
R:Polka
A:Norfolk
N:Bars 7&8 (dG|g/B/ ccc) in MS.CGP
K:C
e/f/|gcc B/c/|edA B/c/|dGG ^F/G/|age e/f/|
gcc B/c/|edA B/c/2|dGgB| ccc:|
:A/B/|caa b/a/|gBB f/e/|cAA c/B/|GDD A/B/|
caa b/a/|gBB f/e/|dD D/c/B/A/|GGG:|
:A/B/|c/c/c d/d/d|c/c/c f/f/f|c/c/c g/g/g|c/c/c a/a/a|
agd>e|gfc>f|1 fed>f|g2 cA/B/||2eca>g|fff||


